X: 43600
T: Young Tom Ennis
R: jig
M: 6/8
K: Adorian
cBA BcB|AGE G2 A/B/|cBA Bed|BAA A2 B|
cBA B>cB|AGE G>AB|cde dBg|BA^G A2:|
gfe age|dBG G2 e/f/|gfe ac'/b/a|ef^g a2 e/f/|
gfe age|dBG G2 B|c>BA dBg|BA^G A2:|

